icons/svgs/arrow-right-long-solid.svg

<svg width="24" height="24" viewBox="0 0 24 24" fill="none" xmlns="http://www.w3.org/2000/svg">
<path d="M21.6094 12.8984L16.6094 17.8984C16.1406 18.4062 15.3203 18.4062 14.8516 17.8984C14.3438 17.4297 14.3438 16.6094 14.8516 16.1406L17.7031 13.25H3.25C2.54688 13.25 2 12.7031 2 12C2 11.3359 2.54688 10.75 3.25 10.75H17.7031L14.8516 7.89844C14.3438 7.42969 14.3438 6.60938 14.8516 6.14062C15.3203 5.63281 16.1406 5.63281 16.6094 6.14062L21.6094 11.1406C22.1172 11.6094 22.1172 12.4297 21.6094 12.8984Z" fill="black"/>
</svg>

<svg xmlns="http://www.w3.org/2000/svg" width="24" height="24" fill="currentColor" class="icon-arrow-right-long-solid" viewBox="0 0 24 24">
  <mask id="a" width="20" height="14" x="2" y="5" maskUnits="userSpaceOnUse" style="mask-type:alpha">
    <path d="m21.61 12.898-5 5a1.205 1.205 0 0 1-1.758 0 1.205 1.205 0 0 1 0-1.757l2.851-2.891H3.25C2.547 13.25 2 12.703 2 12c0-.664.547-1.25 1.25-1.25h14.453l-2.851-2.852a1.205 1.205 0 0 1 0-1.757 1.205 1.205 0 0 1 1.757 0l5 5a1.203 1.203 0 0 1 0 1.757"/>
  </mask>
  <g mask="url(#a)">
    <path d="M0 0h24v24H0z"/>
  </g>
</svg>
